src/img/icons/noturna.svg

<svg width="22" height="22" viewBox="0 0 22 22" fill="none" xmlns="http://www.w3.org/2000/svg">
<path d="M18.3333 5.59258V4.58333C18.3333 2.05608 16.2773 0 13.75 0H8.25C5.72275 0 3.66667 2.05608 3.66667 4.58333V5.59258C1.57758 6.01883 0 7.8705 0 10.0833V17.4167C0 19.9439 2.05608 22 4.58333 22H17.4167C19.9439 22 22 19.9439 22 17.4167V10.0833C22 7.8705 20.4224 6.01792 18.3333 5.59258ZM1.83333 17.4167V10.0833C1.83333 8.888 2.59967 7.86958 3.66667 7.491V20.009C2.59967 19.6304 1.83333 18.612 1.83333 17.4167ZM5.5 4.58333C5.5 3.06717 6.73383 1.83333 8.25 1.83333H13.75C15.2662 1.83333 16.5 3.06717 16.5 4.58333V20.1667H5.5V4.58333ZM20.1667 17.4167C20.1667 18.612 19.4003 19.6304 18.3333 20.009V7.491C19.4003 7.86958 20.1667 8.888 20.1667 10.0833V17.4167ZM10.0833 12.8333C10.0833 13.3393 9.67358 13.75 9.16667 13.75H8.25C7.74308 13.75 7.33333 13.3393 7.33333 12.8333C7.33333 12.3273 7.74308 11.9167 8.25 11.9167H9.16667C9.67358 11.9167 10.0833 12.3273 10.0833 12.8333ZM14.6667 12.8333C14.6667 13.3393 14.2569 13.75 13.75 13.75H12.8333C12.3264 13.75 11.9167 13.3393 11.9167 12.8333C11.9167 12.3273 12.3264 11.9167 12.8333 11.9167H13.75C14.2569 11.9167 14.6667 12.3273 14.6667 12.8333ZM10.0833 16.5C10.0833 17.006 9.67358 17.4167 9.16667 17.4167H8.25C7.74308 17.4167 7.33333 17.006 7.33333 16.5C7.33333 15.994 7.74308 15.5833 8.25 15.5833H9.16667C9.67358 15.5833 10.0833 15.994 10.0833 16.5ZM14.6667 16.5C14.6667 17.006 14.2569 17.4167 13.75 17.4167H12.8333C12.3264 17.4167 11.9167 17.006 11.9167 16.5C11.9167 15.994 12.3264 15.5833 12.8333 15.5833H13.75C14.2569 15.5833 14.6667 15.994 14.6667 16.5ZM11.9167 8.25C11.9167 8.756 11.5069 9.16667 11 9.16667C10.4931 9.16667 10.0833 8.756 10.0833 8.25V7.33333H9.16667C8.65975 7.33333 8.25 6.92267 8.25 6.41667C8.25 5.91067 8.65975 5.5 9.16667 5.5H10.0833V4.58333C10.0833 4.07733 10.4931 3.66667 11 3.66667C11.5069 3.66667 11.9167 4.07733 11.9167 4.58333V5.5H12.8333C13.3403 5.5 13.75 5.91067 13.75 6.41667C13.75 6.92267 13.3403 7.33333 12.8333 7.33333H11.9167V8.25Z" fill="#7D7D7D"/>
</svg>

<svg xmlns="http://www.w3.org/2000/svg" width="22" height="22" fill="none" viewBox="0 0 22 22"><path fill="#7d7d7d" d="M18.333 5.593v-1.01A4.59 4.59 0 0 0 13.75 0h-5.5a4.59 4.59 0 0 0-4.583 4.583v1.01A4.59 4.59 0 0 0 0 10.083v7.334A4.59 4.59 0 0 0 4.583 22h12.834A4.59 4.59 0 0 0 22 17.417v-7.334a4.59 4.59 0 0 0-3.667-4.49m-16.5 11.824v-7.334c0-1.195.767-2.213 1.834-2.592v12.518a2.75 2.75 0 0 1-1.834-2.592M5.5 4.583a2.753 2.753 0 0 1 2.75-2.75h5.5a2.753 2.753 0 0 1 2.75 2.75v15.584h-11zm14.667 12.834a2.75 2.75 0 0 1-1.834 2.592V7.491a2.75 2.75 0 0 1 1.834 2.592zm-10.084-4.584c0 .506-.41.917-.916.917H8.25a.916.916 0 1 1 0-1.833h.917c.507 0 .916.41.916.916m4.584 0c0 .506-.41.917-.917.917h-.917a.916.916 0 1 1 0-1.833h.917c.507 0 .917.41.917.916M10.083 16.5c0 .506-.41.917-.916.917H8.25a.916.916 0 1 1 0-1.834h.917c.507 0 .916.411.916.917m4.584 0c0 .506-.41.917-.917.917h-.917a.916.916 0 1 1 0-1.834h.917c.507 0 .917.411.917.917m-2.75-8.25a.916.916 0 1 1-1.834 0v-.917h-.916a.916.916 0 1 1 0-1.833h.916v-.917a.916.916 0 1 1 1.834 0V5.5h.916a.916.916 0 1 1 0 1.833h-.916z"/></svg>
